packages/foundations/assets/icons/functional/images/food/breakfast_16.svg

<svg width="16" height="16" viewBox="0 0 16 16" fill="none" xmlns="http://www.w3.org/2000/svg">
<g clip-path="url(#clip0_185_1040)">
<path fill-rule="evenodd" clip-rule="evenodd" d="M12.8508 8.29983C13.7121 8.32916 14.4508 8.90355 14.4508 9.69983C14.4508 10.4776 13.7382 11.0798 12.8508 11.0974V11.6925C12.8508 12.3266 12.7718 12.7869 12.5662 13.1643C12.3606 13.5416 12.0806 13.8198 11.7153 14.0152C11.3605 14.2049 11.0109 14.2849 10.4262 14.2979L9.4582 14.2998C8.7606 14.2998 8.3766 14.2239 7.9864 14.0152C7.6211 13.8198 7.33082 13.5296 7.13545 13.1643C6.94574 12.8095 6.86574 12.4599 6.85276 11.8752L6.85083 8.29983H12.8508ZM11.6507 9.49983H8.05068L8.05202 11.8379C8.05762 12.1563 8.07347 12.3065 8.13879 12.4789C8.20411 12.6512 8.39614 12.8735 8.55232 12.957C8.66591 13.0178 8.86371 13.0986 9.28958 13.0986C9.57349 13.0986 9.93378 13.0986 10.3705 13.0986C10.8262 13.0986 11.013 13.0299 11.1494 12.957C11.3055 12.8735 11.4245 12.7545 11.508 12.5983C11.5795 12.4648 11.6507 12.1898 11.6507 11.9243V9.49983ZM5.97086 1.88551C6.81169 2.29698 6.92356 3.02573 6.58312 3.76422L6.37091 4.17814C6.57837 4.30444 6.69054 4.53579 6.66055 4.7717L6.53646 5.74799C6.92063 5.69983 7.23527 5.94363 7.26416 6.271C7.29305 6.59837 7.05967 6.90955 6.70944 6.93896L2.75813 7.2373C2.68631 8.16358 3.10808 9.31316 3.44405 9.79409L5.00166 9.05604C5.27246 8.91843 5.56237 8.97371 5.76662 9.249C5.97086 9.52429 5.85822 9.93416 5.61542 10.0841L4.93467 10.4358C5.10353 10.8684 5.55129 11.3448 5.68117 11.465C5.9243 11.6902 5.93887 12.0698 5.71372 12.3129C5.48856 12.5561 5.10893 12.5706 4.86581 12.3455C4.68826 12.1811 4.51368 11.9912 4.37731 11.8154C4.1454 11.5164 3.96899 11.2268 3.84149 10.9338L3.52977 11.0818C3.29595 11.1927 3.0174 11.1411 2.83873 10.9539C2.34401 10.4356 1.98458 9.74034 1.75306 8.87629C1.52153 8.01223 1.48516 7.23037 1.65446 6.53416C1.70906 6.30965 1.89646 6.03712 2.45837 6.05759C2.40093 5.58127 2.39839 5.1682 2.45077 4.81835C2.56105 4.0818 2.90073 3.4405 3.47997 2.92972C3.63072 2.79678 3.8343 2.75066 4.02221 2.79758L4.14324 2.56655C4.54217 1.80111 5.10083 1.45975 5.97086 1.88551ZM9.45083 5.69983V7.29983H8.25083V5.69983H9.45083ZM11.4508 4.89983V7.29983H10.2508V4.89983H11.4508ZM3.98294 4.14352C3.76737 4.50607 3.65218 4.7717 3.61921 5.16616C3.59723 5.42914 3.60822 5.67732 3.65218 5.91069L5.3176 5.82726L5.42129 5.00892L3.98294 4.14352Z" fill="#1A1C1F"/>
</g>
<defs>
<clipPath id="clip0_185_1040">
<rect width="16" height="16" fill="white"/>
</clipPath>
</defs>
</svg>

<svg xmlns="http://www.w3.org/2000/svg" width="16" height="16" fill="none"><g clip-path="url(#a)"><path fill="#1A1C1F" fill-rule="evenodd" d="M12.85 8.3c.862.03 1.6.604 1.6 1.4 0 .778-.712 1.38-1.6 1.397v.596c0 .634-.078 1.094-.284 1.471a2.04 2.04 0 0 1-.85.851c-.355.19-.705.27-1.29.283l-.968.002c-.697 0-1.081-.076-1.472-.285a2.05 2.05 0 0 1-.85-.85c-.19-.355-.27-.705-.283-1.29L6.85 8.3zm-1.2 1.2h-3.6l.002 2.338c.006.318.021.469.087.64.065.173.257.396.413.479.114.06.312.142.738.142h1.08c.456 0 .643-.07.78-.142a.85.85 0 0 0 .358-.359 1.6 1.6 0 0 0 .143-.674zM5.97 1.886c.842.411.954 1.14.613 1.878l-.212.414c.207.126.32.358.29.594l-.125.976c.385-.048.7.196.728.523a.61.61 0 0 1-.555.668l-3.95.298c-.073.927.35 2.076.685 2.557l1.558-.738c.27-.138.56-.082.765.193s.091.685-.152.835l-.68.352c.169.432.616.909.746 1.029a.6.6 0 0 1-.815.88 4.6 4.6 0 0 1-.489-.53 4.1 4.1 0 0 1-.536-.881l-.311.148a.6.6 0 0 1-.691-.128c-.495-.518-.854-1.214-1.086-2.078-.231-.864-.268-1.646-.099-2.342.055-.224.242-.497.804-.476a4.7 4.7 0 0 1-.007-1.24c.11-.736.45-1.377 1.029-1.888a.6.6 0 0 1 .542-.132l.121-.231c.4-.766.958-1.107 1.828-.682M9.45 5.7v1.6h-1.2V5.7zm2-.8v2.4h-1.2V4.9zm-7.467-.756c-.216.362-.33.628-.364 1.022q-.032.394.033.745l1.666-.084.103-.818z" clip-rule="evenodd"/></g><defs><clipPath id="a"><path fill="#fff" d="M0 0h16v16H0z"/></clipPath></defs></svg>
